X: 349
T: Blue Goose
C:Buddy Thomas
B: canberra pickers and fiddlers
B: old time tunes update
B: tunes
M:C|
L:1/8
Q: 1/4=100
K:G
V:1 
"G"[B2g]J([d2b][d3b])[dd'] | [db][B2g] [Ae][B3g]b | g2zb g2zb | gedc "To Coda"BAGD |
([d2b][d3b])[dd'] | [db][d3g] [Ae][d2g]b | g2zb gebg |[1 "D"edBA "G"G4 :|[2 "D"edBA "G"G2DE ||
"G"GFGA BAGD | "C"CB,CD EFG2 | "G"GFGA BAGE | "D"Dd2e d2([G,2D] | "G"[G,2D])G,A, B,A,A,B, |
"C"CB,CD EFGE | "G"dg2b gedc | [1 "D"BGAF "G"G2DE:|[2 "D"BGAF "G""D.C. al coda"G4 |]
O"tag:" [G,D][G,2D][G,D] [G,3D]([G,D] | [G,D])[G,D] [G,2D][G,2D][G,2D] | [G,D][G,D][G,D][G,D] [G,D][G,D][G,D][G,D] | [G,D][G,D] [G,2D][B,4G]|]
% abcbook-tune_id 67a7d9ec0994a4f56a555ba0
% abcbook-tune_composer_id 
% abcbook-link-0 https://www.youtube.com/watch?v=FguTd4SY0P4
% abcbook-link-title-0 The Blue Goose
% abcbook-boost 0
% abcbook-difficulty 0
% abcbook-tags old time tunes
% abcbook-tablature 
% abcbook-transpose 
% abcbook-tuning GDAD
% abcbook-lastupdated 1739101187016
% abcbook-src-url 
% abcbook-soundfonts 
% abcbook-repeats 1


